assets/images/youtube-icon.svg

<svg xmlns="http://www.w3.org/2000/svg" width="45" height="45" viewBox="0 0 45 45" fill="none">
  <path fill-rule="evenodd" clip-rule="evenodd" d="M23.0273 1.66992C34.7168 1.66992 44.1211 11.0742 44.1211 22.7637C44.1211 34.4531 34.7168 43.8574 23.0273 43.8574C11.3379 43.8574 1.93359 34.4531 1.93359 22.7637C1.93359 11.0742 11.3379 1.66992 23.0273 1.66992ZM15.9961 29.9707C15.8203 29.9707 15.7324 29.9707 15.5566 29.9707C12.9199 29.9707 10.8105 26.7188 10.8105 22.7637C10.8105 18.8086 12.9199 15.5566 15.5566 15.5566H30.5859H31.0254C33.4863 15.9082 35.332 18.9844 35.332 22.7637C35.332 26.543 33.3984 29.6191 31.0254 29.9707C30.8496 29.9707 30.7617 29.9707 30.5859 29.9707C30.4102 29.9707 30.3223 29.9707 30.1465 29.9707H15.9961ZM20.3027 18.8086V26.7188L25.752 22.5879L20.3027 18.8086Z" fill="white" fill-opacity="0.8"/>
</svg>

<svg xmlns="http://www.w3.org/2000/svg" width="45" height="45" fill="none" viewBox="0 0 45 45"><path fill="#fff" fill-opacity=".8" fill-rule="evenodd" d="M23.027 1.67a21.043 21.043 0 0 1 21.094 21.094 21.043 21.043 0 0 1-21.094 21.093A21.043 21.043 0 0 1 1.934 22.764 21.043 21.043 0 0 1 23.027 1.67m-7.03 28.3h-.44c-2.637 0-4.747-3.251-4.747-7.206s2.11-7.207 4.747-7.207h15.469c2.46.351 4.306 3.427 4.306 7.207s-1.934 6.855-4.307 7.207H15.996m4.306-11.161v7.91l5.449-4.131z" clip-rule="evenodd"/></svg>
